src/components/Icon/icons/paypal-icon.svg

<svg width="30" height="30" viewBox="0 0 30 30" fill="none" xmlns="http://www.w3.org/2000/svg">
<path d="M22.5298 10.9375C21.8766 10.1244 20.8355 9.58597 19.6668 9.43656C19.2963 7.17802 17.3158 6 15.4119 6H10.8135C10.1743 6 9.54799 6.22075 9.05004 6.62153C8.55205 7.02234 8.20256 7.58699 8.06651 8.20908L6.06439 17.2115C5.88372 18.0374 6.08738 18.8929 6.62317 19.5586C7.16869 20.2363 7.97837 20.625 8.84465 20.625H9.60902L9.58424 20.7349C9.40434 21.5326 9.59408 22.3564 10.1048 22.9951C10.6154 23.6337 11.3773 24 12.195 24C13.4347 24 14.5044 23.1585 14.7961 21.9536L15.2602 20.0376C15.3369 19.7211 15.6179 19.5 15.9435 19.5H17.1174C18.818 19.5 20.37 18.9055 21.4875 17.826C21.7668 17.5562 21.7746 17.1111 21.5047 16.8318C21.2349 16.5525 20.7898 16.5448 20.5105 16.8146C19.6442 17.6514 18.4709 18.0938 17.1174 18.0938H15.9435C14.9665 18.0938 14.1234 18.757 13.8934 19.7066L13.4294 21.6226C13.2909 22.1944 12.7833 22.5938 12.195 22.5938C11.807 22.5938 11.4454 22.4199 11.203 22.1169C10.9607 21.8138 10.8707 21.4228 10.956 21.0443L12.0733 16.0898H13.5376C14.6828 16.0898 15.695 15.896 16.5463 15.5136C17.4552 15.1053 18.187 14.482 18.7214 13.6608C18.9332 13.3354 18.8411 12.8998 18.5156 12.688C18.1902 12.4762 17.7546 12.5683 17.5428 12.8938C16.7699 14.0814 15.4224 14.6836 13.5376 14.6836H12.3904L13.0151 11.9133C13.1608 11.2675 13.7248 10.8164 14.3869 10.8164H19.2669C19.2872 10.8164 19.3073 10.8156 19.3272 10.8138C20.2054 10.8868 20.9781 11.2514 21.4335 11.8182C21.9266 12.4321 22.0623 13.2772 21.8366 14.3299C21.7552 14.7096 21.997 15.0834 22.3768 15.1648C22.7565 15.2463 23.1303 15.0044 23.2116 14.6247C23.6086 12.7728 23.06 11.5974 22.5298 10.9375ZM14.3869 9.41016C13.751 9.41016 13.1272 9.6289 12.6305 10.0261C12.1338 10.4232 11.7832 10.9836 11.6433 11.604C11.6043 11.6895 9.92775 19.1189 9.92617 19.2188H8.84465C8.40626 19.2188 7.99584 19.0212 7.71867 18.6769C7.4512 18.3445 7.34893 17.9199 7.43767 17.5144L9.43974 8.51198C9.57988 7.8713 10.1576 7.40625 10.8135 7.40625H15.4119C16.5854 7.40625 17.8669 8.03818 18.2248 9.41016H14.3869Z" class="--primary-fill-color" class="--primary-stroke-color" stroke-width="0.35"/>
</svg>

<svg xmlns="http://www.w3.org/2000/svg" width="30" height="30" fill="none" viewBox="0 0 30 30">
    <path fill="#181C19" stroke="#181C19" stroke-width=".35" d="M22.53 10.938c-.653-.814-1.695-1.352-2.863-1.501C19.297 7.178 17.316 6 15.412 6h-4.599c-.639 0-1.265.22-1.763.622-.498.4-.847.965-.983 1.587l-2.003 9.003c-.18.825.023 1.68.56 2.347.545.677 1.354 1.066 2.22 1.066h.765l-.025.11c-.18.798.01 1.621.52 2.26.511.639 1.273 1.005 2.091 1.005 1.24 0 2.31-.841 2.601-2.046l.464-1.916c.077-.317.358-.538.684-.538h1.173c1.701 0 3.253-.595 4.37-1.674.28-.27.288-.715.018-.994-.27-.28-.715-.287-.994-.017-.867.836-2.04 1.279-3.394 1.279h-1.174c-.976 0-1.82.663-2.05 1.613l-.464 1.916c-.138.571-.646.97-1.234.97-.388 0-.75-.173-.992-.476s-.332-.694-.247-1.073l1.117-4.954h1.465c1.145 0 2.157-.194 3.008-.576.91-.409 1.641-1.032 2.175-1.853.212-.326.12-.761-.205-.973-.326-.212-.761-.12-.973.206-.773 1.187-2.12 1.79-4.005 1.79H12.39l.625-2.77c.146-.646.71-1.098 1.372-1.098h4.88c.02 0 .04 0 .06-.002.878.073 1.651.437 2.106 1.004.494.614.63 1.46.404 2.512-.082.38.16.753.54.835.38.081.753-.16.835-.54.397-1.852-.152-3.028-.682-3.688zM14.387 9.41c-.636 0-1.26.219-1.757.616-.496.397-.847.958-.987 1.578-.039.086-1.715 7.515-1.717 7.615H8.845c-.439 0-.85-.198-1.126-.542-.268-.332-.37-.757-.281-1.163L9.44 8.512c.14-.64.718-1.106 1.373-1.106h4.599c1.173 0 2.455.632 2.813 2.004h-3.838z"/>
</svg>
